flaticon/constructions/flashlight.svg

<svg xmlns="http://www.w3.org/2000/svg" width="32" height="32" viewBox="0 0 24 24">
    <path d="M 16 0 L 8 0 C 7.320312 0 6.800781 0.519531 6.800781 1.199219 L 6.800781 5.199219 C 6.800781 7.765625 7.027344 8.746094 8.398438 10.15625 L 8.398438 22.800781 C 8.398438 23.480469 8.921875 24 9.601562 24 L 14.398438 24 C 15.078125 24 15.601562 23.480469 15.601562 22.800781 L 15.601562 10.15625 C 17.011719 8.710938 17.199219 7.769531 17.199219 5.199219 L 17.199219 1.199219 C 17.199219 0.519531 16.679688 0 16 0 Z M 8 0.800781 L 16 0.800781 C 16.238281 0.800781 16.398438 0.960938 16.398438 1.199219 L 16.398438 2 L 15.199219 2 C 14.960938 2 14.800781 2.160156 14.800781 2.398438 C 14.800781 2.640625 14.960938 2.800781 15.199219 2.800781 L 16.398438 2.800781 L 16.398438 4.800781 L 7.601562 4.800781 L 7.601562 2.800781 L 8.800781 2.800781 C 9.039062 2.800781 9.199219 2.640625 9.199219 2.398438 C 9.199219 2.160156 9.039062 2 8.800781 2 L 7.601562 2 L 7.601562 1.199219 C 7.601562 1 7.800781 0.800781 8 0.800781 Z M 14.800781 22.800781 C 14.800781 23.039062 14.640625 23.199219 14.398438 23.199219 L 9.601562 23.199219 C 9.359375 23.199219 9.199219 23.039062 9.199219 22.800781 L 9.199219 10.398438 L 14.800781 10.398438 Z M 15.039062 9.601562 L 8.960938 9.601562 C 7.878906 8.480469 7.640625 7.800781 7.601562 5.601562 L 16.398438 5.601562 C 16.398438 7.800781 16.160156 8.480469 15.039062 9.601562 Z M 15.039062 9.601562"/>
    <path d="M12 18.398438C13.121094 18.398438 14 17.519531 14 16.398438L14 13.199219C14 12.078125 13.121094 11.199219 12 11.199219 10.878906 11.199219 10 12.078125 10 13.199219L10 16.398438C10 17.519531 10.878906 18.398438 12 18.398438zM12 17.601562C11.320312 17.601562 10.800781 17.078125 10.800781 16.398438L10.800781 14.808594C11.109375 15.039062 11.496094 15.179688 11.914062 15.199219 11.941406 15.199219 11.972656 15.199219 12 15.199219 12.027344 15.199219 12.058594 15.199219 12.085938 15.199219 12.507812 15.179688 12.890625 15.039062 13.199219 14.808594L13.199219 16.398438C13.199219 17.078125 12.679688 17.601562 12 17.601562zM12 12C12.679688 12 13.199219 12.519531 13.199219 13.199219 13.199219 13.878906 12.679688 14.398438 12 14.398438 11.320312 14.398438 10.800781 13.878906 10.800781 13.199219 10.800781 12.519531 11.320312 12 12 12zM10.398438 2.800781L13.601562 2.800781C13.839844 2.800781 14 2.640625 14 2.398438 14 2.160156 13.839844 2 13.601562 2L10.398438 2C10.160156 2 10 2.160156 10 2.398438 10 2.640625 10.199219 2.800781 10.398438 2.800781zM10.398438 2.800781"/>
</svg>

<svg xmlns="http://www.w3.org/2000/svg" width="32" height="32" viewBox="0 0 24 24">
    <path d="M16 0H8c-.68 0-1.2.52-1.2 1.2v4c0 2.566.227 3.546 1.598 4.956v12.645c0 .68.524 1.199 1.204 1.199h4.796c.68 0 1.204-.52 1.204-1.2V10.157c1.41-1.445 1.597-2.386 1.597-4.957v-4C17.2.52 16.68 0 16 0zM8 .8h8c.238 0 .398.16.398.4V2H15.2c-.238 0-.398.16-.398.398 0 .243.16.403.398.403h1.2v2H7.601v-2H8.8c.238 0 .398-.16.398-.403C9.2 2.16 9.04 2 8.801 2H7.6v-.8c0-.2.2-.4.399-.4zm6.8 22c0 .24-.16.4-.402.4H9.602c-.243 0-.403-.16-.403-.4V10.399h5.602zm.24-13.198H8.96C7.88 8.48 7.64 7.8 7.603 5.602h8.796c0 2.199-.238 2.878-1.359 4zm0 0"/>
    <path d="M12 18.398c1.121 0 2-.878 2-2V13.2c0-1.12-.879-2-2-2s-2 .88-2 2v3.2c0 1.12.879 2 2 2zm0-.796c-.68 0-1.2-.524-1.2-1.204v-1.59c.31.231.696.372 1.114.391h.172c.422-.02.805-.16 1.113-.39v1.59c0 .68-.52 1.203-1.199 1.203zM12 12c.68 0 1.2.52 1.2 1.2 0 .679-.52 1.198-1.2 1.198-.68 0-1.2-.52-1.2-1.199 0-.68.52-1.199 1.2-1.199zm0 0M10.398 2.8h3.204c.238 0 .398-.16.398-.402C14 2.16 13.84 2 13.602 2h-3.204c-.238 0-.398.16-.398.398a.4.4 0 0 0 .398.403zm0 0"/>
</svg>
